logos/appwrite-icon.svg

<?xml version="1.0" encoding="UTF-8"?>
<svg width="256px" height="171px" viewBox="0 0 256 171" version="1.1" xmlns="http://www.w3.org/2000/svg" preserveAspectRatio="xMidYMid">
    <title>Appwrite</title>
    <g>
        <path d="M128.018861,11.4976205 C140.57991,4.20943701 155.173787,0.0362230359 170.742783,0.0362230359 C217.829688,0.0362230359 256,38.206535 256,85.2934403 C256,132.380346 217.829688,170.550658 170.742783,170.550658 C155.179965,170.550658 140.591368,166.380836 128.0331,159.097776 C99.2684359,175.733361 62.1434132,174.623064 33.9508568,153.348374 C9.61305016,135.009282 -3.08589011,105.074565 0.641534125,74.8296075 C4.36895836,44.5846499 23.9559075,18.6288844 52.0181053,6.74762994 C76.8681001,-3.7736098 105.017682,-1.8412185 128.018861,11.4976205 Z M29.8152259,43.4190301 C6.68862775,74.0656663 12.7848231,117.657486 43.4314593,140.784084 C74.0780955,163.910682 117.669915,157.814487 140.796513,127.16785 C156.288306,106.638616 158.667113,80.3005602 149.337382,58.1964063 C142.483862,42.0628925 129.709538,29.0520757 113.741119,21.8909269 L113.777489,21.857143 C84.8408261,8.83821324 49.7358247,17.0208829 29.8152259,43.4190301 Z M91.355197,55.446856 C93.9640678,55.446856 94.8192633,55.5963841 94.6684236,56.0475915 C94.5946532,56.2180264 94.3796632,57.0131582 94.092073,58.1647871 L93.9809576,58.612835 C93.6953314,59.7721124 93.3534354,61.215252 93.0118103,62.7212641 C92.4587314,65.1509636 91.2595282,70.2251176 90.0256204,75.4308007 L89.8010273,76.3781785 C89.4265216,77.9576923 89.0522319,79.535299 88.6951718,81.0410726 C87.0897128,87.8157423 85.0815774,96.4490193 84.1765393,100.212142 L84.1765393,100.212142 L82.6222346,107.140274 L79.1581683,107.140274 C77.2523416,107.140274 75.6954136,106.936969 75.6954136,106.687755 C75.6954136,105.784029 77.2011873,98.9582048 79.712996,88.5699407 C81.015464,82.8983683 83.3239671,73.3128338 84.7812097,67.2398966 C85.5639113,63.8530663 86.3156087,60.7628157 86.8451929,58.6480367 L86.9515301,58.2246377 C87.312179,56.7930154 87.549446,55.8974581 87.5907629,55.7957548 C87.6891366,55.5963841 89.3969043,55.446856 91.355197,55.446856 Z M69.4729484,72.5087927 C71.7814515,72.5087927 73.6885899,72.6596324 73.6885899,72.8603147 C73.6885899,73.1108398 71.8811369,75.2212838 69.6736308,77.679315 C67.464813,80.0888151 65.65736,82.3461639 65.65736,82.6976859 C65.65736,82.9980537 67.6143411,85.4088655 69.9753102,87.9154276 L69.9753102,87.9154276 L74.290637,92.5835882 L65.1563099,92.5835882 L61.9440803,89.1719879 C60.1877816,87.3146922 58.1271803,85.0547201 57.3769168,84.1523052 L57.3769168,84.1523052 L56.0206712,82.5468463 L60.6376774,77.5271636 L65.3071496,72.5087927 Z M104.555637,72.5087927 L109.070335,77.3789472 C111.580832,80.0376608 113.587656,82.3973182 113.587656,82.6465316 C113.587656,82.9468994 111.681829,85.2593374 109.32086,87.8668966 L109.32086,87.8668966 L105.056688,92.5337455 L100.388527,92.5835882 L95.7229898,92.5835882 L99.8874769,88.0164247 C102.194668,85.5570818 104.103118,83.2000477 104.202804,82.847214 C104.353643,82.1966358 101.593933,78.8820976 97.6760359,74.9681355 C96.624093,73.9135693 95.7702092,72.9613117 95.7702092,72.8091604 C95.7702092,72.6596324 97.7271902,72.5087927 100.186533,72.5087927 L100.186533,72.5087927 L104.555637,72.5087927 Z" fill="#F02E65"></path>
    </g>
</svg>

<?xml version="1.0" encoding="UTF-8"?>
<svg width="256" height="171" version="1.1" xmlns="http://www.w3.org/2000/svg" preserveAspectRatio="xMidYMid">
	<path d="M128.019 11.498C140.579 4.209 155.174.036 170.743.036 217.83.036 256 38.206 256 85.293s-38.17 85.258-85.257 85.258c-15.563 0-30.152-4.17-42.71-11.453-28.765 16.635-65.89 15.525-94.082-5.75a85.257 85.257 0 0 1 94.068-141.85ZM29.815 43.419c-23.126 30.647-17.03 74.238 13.616 97.365 30.647 23.127 74.239 17.03 97.366-13.616 15.491-20.53 17.87-46.867 8.54-68.972-6.853-16.133-19.627-29.144-35.596-36.305l.036-.034C84.841 8.838 49.736 17.021 29.815 43.42Zm61.54 12.028c2.61 0 3.464.15 3.313.6-.073.171-.288.966-.576 2.118l-.111.448c-.286 1.16-.628 2.602-.97 4.108a1986.16 1986.16 0 0 1-2.985 12.71l-.225.947-1.106 4.663c-1.605 6.775-3.613 15.408-4.518 19.171l-1.555 6.928h-3.464c-1.906 0-3.463-.203-3.463-.452 0-.904 1.506-7.73 4.018-18.118 1.302-5.672 3.611-15.257 5.068-21.33a504.059 504.059 0 0 1 2.064-8.592l.107-.423c.36-1.432.597-2.328.639-2.43.098-.199 1.806-.348 3.764-.348ZM69.473 72.509c2.308 0 4.216.15 4.216.351 0 .25-1.808 2.361-4.015 4.82-2.21 2.409-4.017 4.666-4.017 5.018 0 .3 1.957 2.71 4.318 5.217l4.316 4.669h-9.135l-3.212-3.412c-1.756-1.857-3.817-4.117-4.567-5.02l-1.356-1.605 4.617-5.02 4.67-5.018Zm35.083 0 4.514 4.87c2.51 2.659 4.518 5.018 4.518 5.268 0 .3-1.906 2.612-4.267 5.22l-4.264 4.667-4.668.05h-4.666l4.164-4.568c2.308-2.459 4.216-4.816 4.316-5.169.15-.65-2.61-3.965-6.527-7.879-1.052-1.054-1.906-2.007-1.906-2.159 0-.15 1.957-.3 4.417-.3h4.369Z" fill="#F02E65"/>
</svg>
